!!!ONB: MCCC : IFC0053_02 : Extracted Monophonic Melody
!!!COM: Chopin, Frédéric
!!!OPR: Mazurkas
!!!OMV: 2
!!!SCT: Op.41
!!!ODT: 1838///
**kern
*thru
*staff1
*clefG2
*k[]
*C:
*M3/4
*MM192
=1
4e
4g
4e
=2
4g
4e
4g
=3
4e
4g
4e
=4
4g
4e
4g
=5
8cc
8ccc
12bb
12ccc
12bb
8aa
8ff
=6
8dd
8dd
4dd
4cc
=7
8a
8aa
12gg
12aa
12gg
8ff
8dd
=8
8b
8b
4b
4a
=9
8cc
8ccc
4bb
8aa
8ff
=10
8dd
8dd
4dd
4cc
=11
8a
8aa
4gg
8ff
8dd
=12
8b
8b
4b
4a
=13
4b
8b
8cc
4dd
=14
4b
8b
8cc
4dd
=15
8ff
8ee
4dd
8g
8ee
=16
4cc
4cc
4cc
=17
4b
8b
8cc
4dd
=18
8b
8cc
8b
8cc
4dd
=19
8ff
8ee
4dd
8g
8ee
=20
4cc
4cc
4cc[
=21
8cc]
8ff
4aa
4ccc
=22
8ddd
8eee
12fff
12ggg
12fff
8eee
8ddd
=23
8ccc
8ccc
4gg
8ff
8gg
=24
2aa
4ff
=25
8cc
8ff
4aa
8ccc
8fff
=26
4aaa
8ggg
8fff
8eee
8ddd
=27
12ccc
12ddd
12ccc
4gg
8gg
8bb
=28
2aa
4ff
=29
8cc
8ff
4aa
4ccc
=30
8ddd
8eee
12fff
12ggg
12fff
8eee
8ddd
=31
12eee
12ddd
12ccc
4gg
8ff
8gg
=32
2aa
4ff
=33
8cc
8ff
8gg
8aa
8ccc
8fff
=34
8ggg
8aaa
8ggg
8fff
8eee
8ddd
=35
12ccc
12ddd
12ccc
4gg
8gg
8bb
=36
2aa
4ff
=37
8cc
8ccc
12bb
12ccc
12bb
8aa
8ff
=38
8dd
8dd
4dd
4cc
=39
8a
8aa
12gg
12aa
12gg
8ff
8dd
=40
8b
8b
4b
4a
=41
8cc
8ccc
4bb
8aa
8ff
=42
8dd
8dd
4dd
4cc
=43
8a
8aa
4gg
8ff
8dd
=44
8b
8b
4b
4a
=45
4b
8b
8cc
4dd
=46
4b
8b
8cc
4dd
=47
8ff
8ee
4dd
8g
8ee
=48
4cc
4cc
4cc
=49
4b
8b
8cc
4dd
=50
8b
8cc
8b
8cc
4dd
=51
8ff
8ee
4dd
8g
8ee
=52
4cc
4cc
4cc
=53
4cc
4cc
[4cc
=54
4cc]
4cc
[4cc
=55
4cc]
4cc
4cc
=56
4cc
4cc
4cc
=57
*k[b-e-a-d-g-]
4g-
4g-
4g-
=58
8f
8a-
4dd-
4ff
=59
8ee-
8dd-
4b-
4g-
=60
8f
8a-
4dd-
4aa-
=61
4g-
4g-
4g-
=62
8f
8a-
4dd-
4ff
=63
8ee-
8dd-
4b-
4e-
=64
8a-
8cc
4ee-
4aa-
=65
4g-
4g-
4g-
=66
8f
8a-
4dd-
4ff
=67
8ee-
8dd-
4b-
4g-
=68
8f
8a-
4dd-
4aa-
=69
4g-
4g-
4g-
=70
4f
4dd-
4dd-
=71
4dd-
4dd-
4dd-
=72
4cc
4cc
4cc
=73
4ee-
4ee-
4ee-
=74
4ee-
4ee-
4ee-
=75
4dd
4dd
4dd
=76
4ee-
4ee-
4ee-
=77
4ee-
4ee-
4ee-
=78
4ee-
4ee-
4ee-
=79
4dd
4dd
4dd
=80
4ee-
4ee-
4ee-
=81
4ee-
4ee-
4ee-
=82
4ee-
4ee-
4ee-
=83
4dd
4dd
4dd
=84
4ee-
4ee-
4ee-
=85
4ee-
4ee-
4ee-
=86
4ee-
4ee-
4ee-
=87
4dd
4dd
4dd
=88
4dd
4dd
4dd
=89
*k[]
8cc
8ccc
12bb
12ccc
12bb
8aa
8ff
=90
8dd
8dd
4dd
4cc
=91
8a
8aa
12gg
12aa
12gg
8ff
8dd
=92
8b
8b
4b
4a
=93
8cc
8ccc
4bb
8aa
8ff
=94
8dd
8dd
4dd
4cc
=95
8a
8aa
4gg
8ff
8dd
=96
8b
8b
4b
4a
=97
4b
8b
8cc
4dd
=98
8b
8cc
8b
8cc
4dd
=99
8ff
8ee
4dd
8g
8ee
=100
4cc
4cc
4cc
=101
4b
8b
8cc
4dd
=102
8b
8cc
8b
8cc
4dd
=103
8ff
8ee
4dd
8g
8ee
=104
4cc
4cc
4cc
=105
4a
4cc
4a
=106
4cc
4a
4cc
=107
4a
4cc
4a
=108
4cc
4r
4r
=109
4e
4g
4e
=110
4g
4e
4g
=111
4e
4g
4e
=112
4g
4r
4r
=113
4a
4cc
4r
=114
4a
4cc
4r
=115
4a
4cc
4a
=116
4cc
4a
4r
=117
4e
4g
4r
=118
4e
4g
4r
=119
4e
4g
4e
=120
4g
2e
==
*-
